images/icons/onlyfans.svg

<svg fill="none" height="24" viewBox="0 0 24 24" width="24" xmlns="http://www.w3.org/2000/svg"><g fill="#fff"><path d="m8 4c-1.58225 0-3.12897.46919-4.44456 1.34824s-2.34097 2.12848-2.946473 3.59029c-.60550103 1.46177-.763927 3.07037-.455246 4.62217.308682 1.5519 1.070609 2.9773 2.189429 4.0962 1.11882 1.1188 2.54428 1.8807 4.09613 2.1894s3.16038.1502 4.62222-.4553c1.4618-.6055 2.7112-1.6308 3.5903-2.9464.879-1.3156 1.3482-2.8624 1.3482-4.4446-.0007-2.12151-.8438-4.15592-2.3439-5.65605-1.5002-1.50014-3.5346-2.34322-5.6561-2.34395zm0 10.4c-.47467 0-.93869-.1408-1.33337-.4045-.39467-.2637-.70229-.6385-.88394-1.0771-.18165-.4385-.22918-.9211-.13657-1.3866.0926-.4656.32118-.8932.65683-1.2289.33564-.3356.76328-.56418 1.22884-.65679.46555-.0926.94811-.04507 1.38665.13658s.81337.48931 1.07709.88391c.26367.3947.40447.8587.40447 1.3334.0005.3153-.0613.6276-.1817.919s-.29721.5562-.52017.7791c-.22295.223-.48772.3997-.77912.5202-.2914.1204-.6037.1822-.91901.1817z" opacity=".8"/><path d="m16.992 9.99954c2.0325.58516 4.4325 0 4.4325 0-.6967 3.03996-2.9047 4.94356-6.0883 5.17576-.6175 1.4331-1.6415 2.6539-2.9453 3.5113-1.3039.8575-2.83038 1.3141-4.3909 1.3134l2.4-7.6279c2.4686-7.8409 3.7312-8.3721 9.5826-8.3721h4.0174c-.672 2.95954-2.9879 5.22148-7.008 5.99954z"/></g></svg>

<svg width="24" height="24" viewBox="0 0 24 24" fill="none" xmlns="http://www.w3.org/2000/svg">
<path opacity="0.8" d="M8 4C6.41775 4 4.87103 4.46919 3.55544 5.34824C2.23985 6.22729 1.21447 7.47672 0.608967 8.93853C0.00346597 10.4003 -0.15496 12.0089 0.153721 13.5607C0.462403 15.1126 1.22433 16.538 2.34315 17.6569C3.46197 18.7757 4.88743 19.5376 6.43928 19.8463C7.99113 20.155 9.59966 19.9965 11.0615 19.391C12.5233 18.7855 13.7727 17.7602 14.6518 16.4446C15.5308 15.129 16 13.5822 16 12C15.9993 9.87849 15.1562 7.84408 13.6561 6.34395C12.1559 4.84381 10.1215 4.00073 8 4V4ZM8 14.4C7.52533 14.4 7.06131 14.2592 6.66663 13.9955C6.27196 13.7318 5.96434 13.357 5.78269 12.9184C5.60104 12.4799 5.55351 11.9973 5.64612 11.5318C5.73872 11.0662 5.9673 10.6386 6.30295 10.3029C6.63859 9.9673 7.06623 9.73872 7.53179 9.64611C7.99734 9.55351 8.4799 9.60104 8.91844 9.78269C9.35698 9.96434 9.73181 10.272 9.99553 10.6666C10.2592 11.0613 10.4 11.5253 10.4 12C10.4005 12.3153 10.3387 12.6276 10.2183 12.919C10.0979 13.2104 9.92109 13.4752 9.69813 13.6981C9.47518 13.9211 9.21041 14.0978 8.91901 14.2183C8.62761 14.3387 8.31531 14.4005 8 14.4V14.4Z" fill="white"/>
<path d="M16.992 9.99954C19.0245 10.5847 21.4245 9.99954 21.4245 9.99954C20.7278 13.0395 18.5198 14.9431 15.3362 15.1753C14.7187 16.6084 13.6947 17.8292 12.3909 18.6866C11.087 19.5441 9.56052 20.0007 8 20L10.4 12.3721C12.8686 4.5312 14.1312 4 19.9826 4H24C23.328 6.95954 21.0121 9.22148 16.992 9.99954Z" fill="white"/>
</svg>
